X:1
T:Title
%%score { ( 1 3 ) | ( 2 4 ) }
L:1/8
Q:1/4=100
M:4/4
K:Eb
V:1 treble nm="Grand Piano"
V:3 treble 
V:2 bass 
V:4 bass 
V:1
 B2 B2 cBEF | G2 A2 G4 | [A,DF]2 [A,DF]2 [B,EG][A,DF][G,E][A,DF] | G2 c2 B4 | %4
w: B.~B.~McKinney * * * * *||||
 [GB]2 [GB]2 [Ac][GB][EG][EGB] |[M:9/8] z3 z e2- e3 |[M:4/4] [B,GB]2 [EB]2 [Dc][EB][B,E][CEA] | %7
w: |||
 [B,EG]2 [A,DF]2 [G,B,E]4 |] %8
w: |
V:2
 [E,G,E]2 [E,G,E]2 [E,A,E][E,G,E][E,G,][E,A,E] | [E,B,E]2 [E,CE]2 [E,B,E]4 | %2
 B,,2 B,,2 B,,B,,B,,B,, | [E,B,E]2 [E,A,E]2 [E,G,E]4 | [E,E]2 [E,E]2 [E,E][E,E]E,_D, | %5
[M:9/8] z3 z C2- C3 |[M:4/4] B,,2 [B,,G,]2 [B,,A,][E,G,]G,,A,, | B,,2 B,,2 E,4 |] %8
V:3
 x8 | x8 | x8 | x8 | x8 |[M:9/8] [EAe]2 [Ge]- [Ge] z z _G3 |[M:4/4] x8 | x8 |] %8
V:4
 x8 | x8 | x8 | x8 | x8 |[M:9/8] C,2 [B,,B,]- [B,,B,] [A,,F]2 =A,,3 |[M:4/4] x8 | x8 |] %8

